X:12
T:Tha Crodhaigh Mac Allan
T:Neil Ferguson Esquire's Favorite Air
S:Petrie's Third Collection of Strathspey Reels and Country Dances &c.
Z:Steve Wyrick , 7/30/05
N:Petrie's Third Collection, page 6
L:1/4
M:3/4
R:Air
K:G
D/E/|FF A/F/|ED D/E/|FFA|[FD][EA,]D/E/|[FD][FD][FD]|EFB|AFE|D2::A/d/|
fe/d/e|dB/A/A/d/|fe/d/e|d2 A/d/|fe/d/e|d (B/A/)(A/d/)|(B/A/)(A/F/) (E3/2D//E//)|D2::d|
FF A/F/|EDd|FFA|FEd|F F/F/F/F/|EFB|AF (E3/2D//E//)|D2:|]
